src/main/resources/img/connection/Connections.svg

<svg width="16" height="16" version="1.1" viewBox="0 0 16 16"  xmlns="http://www.w3.org/2000/svg">
    
    
<path d="m10 1c-2.733 0-5.0372 0.45739-5.7617 1.082a7 2.5 0 0 1 1.7617-0.082031 7 2.5 0 0 1 6.7441 1.832c1.932-0.24927 3.2559-0.75139 3.2559-1.332 0-0.828-2.686-1.5-6-1.5zm6 2.5996c0 0.13333-0.16796 0.28711-0.47266 0.44336-0.83564 0.32121-1.6532 0.55964-2.5273 0.71484v2c0.45191-0.074614 0.87064-0.16037 1.2383-0.25586 0.54373-0.14123 0.98437-0.29916 1.2891-0.45508 0.30469-0.15592 0.47266-0.31003 0.47266-0.44336zm-2e-3 3.0117c-0.0012 5.773e-4 -0.0024 0.011533-0.0059 0.03906-0.09763 0.2362-0.45982 0.40116-0.79102 0.54102-0.66781 0.25989-1.4204 0.44083-2.2012 0.56836v1.9902c0.78255-0.13011 1.5451-0.29748 2.209-0.56641 0.34403-0.13799 0.71862-0.30823 0.78906-0.55469 0.0046-0.6324 6.45e-4 -1.264 2e-3 -1.8965-0.0018-0.0284 0.0017-0.12283-2e-3 -0.12109zm2e-3 2.9883c-0.03144 0.23673-0.38393 0.4066-0.69336 0.54687-0.68933 0.28732-1.484 0.47378-2.3066 0.60938v2.0039c0.79511-0.13019 1.5627-0.3135 2.2383-0.58203 0.32704-0.14133 0.69214-0.30791 0.75977-0.54883 0.0046-0.67627 6.45e-4 -1.353 2e-3 -2.0293z" fill="#afb1b3" stroke-width=".89443"/><path d="m6 3c-3.314 0-6 0.67206-6 1.5 0 0.82794 2.686 1.5 6 1.5 3.314 0 6-0.67206 6-1.5 0-0.82794-2.686-1.5-6-1.5zm-6 2.5996v2.0039c0 0.53334 2.7 1.3965 6 1.3965 3.3 0 6-0.86315 6-1.3965v-2.0039c0 0.53334-2.7 1.4004-6 1.4004-3.3 0-6-0.86706-6-1.4004zm0 3v2.0039c0 0.53334 2.7 1.3965 6 1.3965 3.3 0 6-0.86315 6-1.3965v-2.0039c0 0.53334-2.7 1.4004-6 1.4004-3.3 0-6-0.86706-6-1.4004zm0 3v2.0039c0 0.53334 2.7 1.3965 6 1.3965 3.3 0 6-0.86315 6-1.3965v-2.0039c0 0.53334-2.7 1.4004-6 1.4004-3.3 0-6-0.86706-6-1.4004z" fill="#5f8dd3" stroke-width=".89443"/></svg>

<svg width="16" height="16" xmlns="http://www.w3.org/2000/svg"><path d="M10 1c-2.733 0-5.037.457-5.762 1.082A7 2.5 0 0 1 6 2a7 2.5 0 0 1 6.744 1.832C14.676 3.582 16 3.081 16 2.5c0-.828-2.686-1.5-6-1.5zm6 2.6c0 .133-.168.287-.473.443-.835.321-1.653.56-2.527.715v2c.452-.075.87-.16 1.238-.256.544-.141.985-.3 1.29-.455.304-.156.472-.31.472-.444zm-.002 3.011-.006.04c-.098.236-.46.4-.79.54-.669.26-1.421.441-2.202.569v1.99c.782-.13 1.545-.298 2.209-.566.344-.138.718-.309.789-.555.005-.633 0-1.264.002-1.897-.002-.028.002-.122-.002-.12zM16 9.6c-.031.236-.384.406-.693.546-.69.288-1.484.474-2.307.61v2.004c.795-.13 1.563-.314 2.238-.582.327-.142.692-.308.76-.55.005-.675 0-1.352.002-2.028z" fill="#afb1b3"/><path d="M6 3c-3.314 0-6 .672-6 1.5S2.686 6 6 6s6-.672 6-1.5S9.314 3 6 3zM0 5.6v2.004C0 8.136 2.7 9 6 9s6-.863 6-1.397V5.6C12 6.133 9.3 7 6 7s-6-.867-6-1.4zm0 3v2.004C0 11.136 2.7 12 6 12s6-.863 6-1.397V8.6c0 .533-2.7 1.4-6 1.4s-6-.867-6-1.4zm0 3v2.004C0 14.136 2.7 15 6 15s6-.863 6-1.397V11.6c0 .533-2.7 1.4-6 1.4s-6-.867-6-1.4z" fill="#5f8dd3"/></svg>
